X: 26651
T: Midlothian
R: reel
M: 4/4
K: Dmajor
B|ADFA GBEG|FDAF EA,A,B|ADFA GBEG|FAEG FDDB|
ADFA GBEG|FDAF EA,A,B|FAd=c BGed|cAag fd d2||
afdf gbeg|afed cecA|aefd gbeg|faeg fddg|
afdf gbeg|fafd cecA|BdAd GdFd|EBAG FDD||

